X: 4
T: Windbroke
R: reel
M: 4/4
L: 1/8
K: Emin
|BE ~E2 GABE- |EGAd B2 AG | BE ~E2 GABc-|cBAG ABAG|BE ~E2 GABE- |EGAd B2 AG | edde ~B2 AG |A2 AG FGAc :||:Begf efde- |eedf e2 eA| Begf efga-|a a2 g fede|Begf efde- |e edf e2 eB | ~c3 A ~B3 G|A2 AG FGAc :||


Tune 910	Setting 14095

